assets/fonts/icomoon/re/icon/tables/tables-delete.svg

<!-- Generated by IcoMoon.io -->
<svg version="1.1" xmlns="http://www.w3.org/2000/svg" width="32" height="32" viewBox="0 0 32 32">
<title>tables-delete</title>
<path d="M16 0c-8.821 0-16 7.178-16 16 0 4.578 1.943 8.7 5.034 11.62 1.921 1.813 4.288 3.151 6.918 3.84 1.296 0.341 2.648 0.54 4.048 0.54s2.753-0.199 4.047-0.54c2.47-0.647 4.705-1.865 6.559-3.515 3.3-2.932 5.394-7.194 5.394-11.945 0-8.822-7.178-16-16-16zM25.013 26.966c-2.452 2.021-5.594 3.237-9.013 3.237s-6.559-1.216-9.013-3.237c-0.712-0.586-1.367-1.24-1.953-1.953-2.020-2.452-3.236-5.594-3.236-9.013s1.216-6.559 3.236-9.013c0.473-0.573 0.999-1.099 1.554-1.593 2.509-2.228 5.8-3.596 9.412-3.596s6.904 1.368 9.412 3.596c0.421 0.375 0.82 0.773 1.193 1.194 2.229 2.509 3.598 5.8 3.598 9.412s-1.369 6.904-3.598 9.412c-0.492 0.556-1.017 1.082-1.592 1.554z"></path>
<path d="M18.067 8.090h-4.495l-0.898 0.899h-3.146v1.798h12.583v-1.798h-3.145l-0.899-0.899z"></path>
<path d="M10.427 22.472c0 0.989 0.809 1.797 1.798 1.797h7.191c0.988 0 1.798-0.808 1.798-1.797v-10.786h-10.787v10.786zM12.225 13.483h7.191v8.989h-7.191v-8.989z"></path>
</svg>

<?xml version="1.0" encoding="utf-8"?>
<!-- Generator: Adobe Illustrator 16.0.0, SVG Export Plug-In . SVG Version: 6.00 Build 0)  -->
<!DOCTYPE svg PUBLIC "-//W3C//DTD SVG 1.1//EN" "http://www.w3.org/Graphics/SVG/1.1/DTD/svg11.dtd">
<svg version="1.1" id="Layer_1" xmlns="http://www.w3.org/2000/svg" xmlns:xlink="http://www.w3.org/1999/xlink" x="0px" y="0px"
	 width="32px" height="32px" viewBox="0 0 32 32" enable-background="new 0 0 32 32" xml:space="preserve">
<title>user-settings-6</title>
<g>
	<path d="M16,0C7.179,0,0,7.178,0,16c0,4.578,1.943,8.7,5.034,11.62c1.921,1.813,4.288,3.151,6.918,3.84
		C13.248,31.801,14.6,32,16,32c1.4,0,2.753-0.199,4.047-0.54c2.47-0.647,4.705-1.865,6.559-3.515C29.906,25.013,32,20.751,32,16
		C32,7.178,24.822,0,16,0z M25.013,26.966c-2.452,2.021-5.594,3.237-9.013,3.237s-6.559-1.216-9.013-3.237
		c-0.712-0.586-1.367-1.24-1.953-1.953C3.014,22.561,1.798,19.419,1.798,16s1.216-6.559,3.236-9.013
		c0.473-0.573,0.999-1.099,1.554-1.593c2.509-2.228,5.8-3.596,9.412-3.596s6.904,1.368,9.412,3.596
		c0.421,0.375,0.82,0.773,1.193,1.194c2.229,2.509,3.598,5.8,3.598,9.412s-1.369,6.904-3.598,9.412
		C26.113,25.968,25.588,26.494,25.013,26.966z"/>
	<path d="M18.067,8.09h-4.495l-0.898,0.899H9.528v1.798h12.583V8.989h-3.145L18.067,8.09z"/>
	<path d="M10.427,22.472c0,0.989,0.809,1.797,1.798,1.797h7.191c0.988,0,1.798-0.808,1.798-1.797V11.686H10.427V22.472z
		 M12.225,13.483h7.191v8.989h-7.191V13.483z"/>
</g>
</svg>
